X:1
T:IJsselmeer, CMD
T:IJsselmeer, CMD
T:Dutch Tune
T:Public Domain Courtesy of the Cyber Hymnal™
C:Dutch Tune
Z:Public Domain
Z:Courtesy of the Cyber Hymnal™
%%score ( 1 2 ) ( 3 4 )
L:1/8
Q:1/4=112
M:4/4
K:A
V:1 treble 
V:2 treble 
V:3 bass 
V:4 bass 
V:1
 [CE]2 | [CA]2 [EA]2 [Ec]2 [DB]2 | [CA]2 ([EG][DF]) [CE]2 [EA]2 | [EG]2 [EA]2 [Ed]2 [Ec]2 | %4
 [EB]6 E2 | [EA]2 [EA]2 [Ec]2 [DB]2 | [CA]3 [EG] [^DF]2 (GA) | (Bc) (^de) E2 (GF) | E6 E2 | %9
 [Ed]3 [Ec] [EB]2 [EB]2 | [Ec]3 [EB] [EA]2 (Ac) | [Ae]2 [Ae]2 [Ac]2 A2 | [Ac]4 [GB]2 E2 | %13
 A3 z A (cB) (AG) | [DF]2 [EF]2 !fermata![Dd]2 (cB) | A3 z A (GA) (Bc) | [CA]4 [EB]4 | %17
 [Ec]2 (Ac) [Ae]2 G2 | [CA]6 |] %19
V:2
 x2 | x8 | x8 | x8 | x6 E2 | x8 | x6 E2 | E2 E2 E2 ^D2 | E6 E2 | x8 | x6 E2 | x6 A2 | x6 E2 | %13
 E2 (E2 E2) E2 x | x6 F2 | E2 (E2 E2) D2 x | x8 | x2 E2 x (ED) x | x6 |] %19
V:3
 [A,,A,]2 | [A,,A,]2 [C,A,]2 [E,A,]2 [E,G,]2 | [A,,E,]2 [A,,A,]2 [A,,A,]2 [A,C]2 | %3
 [B,D]2 [A,C]2 [G,B,]2 A,2 | [E,G,]6 [D,G,]2 | [C,A,]2 [A,,C]2 [E,A,]2 [E,G,]2 | %6
 [F,A,]3 [G,B,] [A,B,]2 ([G,B,][F,A,]) | [E,G,]2 [C,G,]2 [B,,G,]2 [B,,A,]2 | [E,G,]6 [E,G,]2 | %9
 [E,B,]3 [E,A,] [E,G,]2 [E,G,]2 | A,3 [A,D] [A,C]2 (CE) | [A,C]2 [A,C]2 [A,E]2 [F,^D]2 | %12
 [E,E]6 G,2 | [C,A,]2 [A,,C]2 [A,,A,]2 [C,A,]2 x | [D,A,]2 [C,^A,]2 !fermata![B,,B,]2 [D,B,]2 | %15
 [E,C]2 [E,C]2 [E,B,]2 [E,G,]2 x | [A,,A,]4 [E,G,]4 | [A,,A,]2 A,2 [E,C]2 [E,B,]2 | [A,,A,]6 |] %19
V:4
 x2 | x8 | x8 | x6 A,2 | x8 | x8 | x8 | x8 | x8 | x8 | A,3 A,2 x3 | x8 | x6 (E,D,) | x9 | x8 | x9 | %16
 x8 | x2 (C,A,,) x4 | x6 |] %19

